X: 67
T: JIG: Winnie Hayes'
C: C: Trad.; S: Various
C: Set Leaders: Sophie, Anton, Tania
Z: [Unedited]; ceolachan at The Session
N: https://thesession.org/members/26966/sets/99413
R: Jig
M: 6/8
L: 1/8
Q: 3/8=116
K: Edor
|:BAF E2 E|FEE E2 A|BAF E2 E|FDD FGA|
BAF ~E3|FEE E2 e|edB AB/c/d|edB AFE:||
|:Bcd e2 e|fee efd|~B3 efg|ef{a}f def|
g2 g fgf|edB e2 f|edB ABd|edB AFE:||

